X:1
T: the Scolding Wife
S:Jeff Weismiller <weismlr@interlog.COM>
B:O'Neill's Music of Ireland
M:4/4
L:1/8
K:Dmix
|: ~D3E FEFD | ~G2GA BGAF |1 ~D2DE FEFG | AdcA GECE :|2 ~d2dg fdcA | fdcA AG {A}~G2 ||
|: fdcd fgaf | ~g2ga bgag |1 fdcd fgag | fdcA AG {A}~G2 :|2 bgag fgag | fdcA AG {A}~G2 |]
